X: 252
T: The cook in the kitchen
C: anon.
O: Ireland
B: Francis O'Neill: "The Dance Music of Ireland" (1907) no. 252
R: Double jig
Z: Transcribed by Frank Nordberg - http://www.musicaviva.com
F: http://www.musicaviva.com/abc/tunes/ireland/oneill-1001/oneill-1001-025
2.abc
m: Tn2 = (3n/o/n/ m/n/
M: 6/8
L: 1/8
K: G
D|G>DG GAG|FDE F2A|G>DG GFG|Add cAG|G>DG GAG|FDE F2d|cAG FGA|{B}AGG G2:|
|:A|B>cB BAG|ABA AGF|GAG GFG|Add cAG|B>cB BAG|ABA A2d|cAG FGA|{B}AGG G2:|


